packages/gestalt/src/icons/history.svg

<svg height="24" width="24" xmlns="http://www.w3.org/2000/svg"><path d="M11 5.75c-.69 0-1.25.56-1.25 1.25v4.518l3.116 3.116c.244.244.564.366.884.366a1.25 1.25 0 0 0 .884-2.134l-2.384-2.384V7c0-.69-.56-1.25-1.25-1.25ZM22 11c0 6.065-4.935 11-11 11A10.945 10.945 0 0 1 .138 12.744a1.5 1.5 0 0 1 2.963-.473A7.957 7.957 0 0 0 11 19c4.411 0 8-3.589 8-8s-3.589-8-8-8c-2.218 0-4.296.941-5.784 2.5H6a1.5 1.5 0 1 1 0 3H0V3a1.5 1.5 0 1 1 3 0v.465A11.037 11.037 0 0 1 11 0c6.065 0 11 4.935 11 11Z"/></svg>

<svg height="24" width="24" xmlns="http://www.w3.org/2000/svg"><path d="M11 5.75C10.31 5.75 9.75 6.31 9.75 7V11.518L12.866 14.634C13.11 14.878 13.43 15 13.75 15C14.07 15 14.39 14.878 14.634 14.634C15.122 14.146 15.122 13.354 14.634 12.866L12.25 10.482V7C12.25 6.31 11.69 5.75 11 5.75ZM22 11C22 17.065 17.065 22 11 22C5.561 22 0.993 18.107 0.138 12.744C0.007 11.926 0.565 11.157 1.383 11.026C2.202 10.896 2.97 11.453 3.101 12.271C3.722 16.17 7.044 19 11 19C15.411 19 19 15.411 19 11C19 6.589 15.411 3 11 3C8.782 3 6.704 3.941 5.216 5.5H6C6.829 5.5 7.5 6.171 7.5 7C7.5 7.829 6.829 8.5 6 8.5H0V3C0 2.171 0.671 1.5 1.5 1.5C2.329 1.5 3 2.171 3 3V3.465C5.049 1.299 7.932 0 11 0C17.065 0 22 4.935 22 11Z"/></svg>
